MonoIcons/scalable/status/bluetooth-disconnected-symbolic.svg

<?xml version="1.0" encoding="UTF-8"?>
<svg height="16px" viewBox="0 0 16 16" width="16px" xmlns="http://www.w3.org/2000/svg">
    <path d="m 7.957031 0 c -0.128906 0.0078125 -0.253906 0.0390625 -0.371093 0.0898438 c -0.355469 0.1640622 -0.585938 0.5195312 -0.585938 0.9101562 v 5.296875 l -2.34375 -2.046875 c -0.414062 -0.363281 -1.042969 -0.324219 -1.40625 0.09375 c -0.363281 0.414062 -0.324219 1.042969 0.09375 1.40625 l 2.566406 2.25 l -2.566406 2.25 c -0.417969 0.363281 -0.457031 0.992188 -0.09375 1.40625 c 0.363281 0.417969 0.992188 0.457031 1.40625 0.09375 l 2.34375 -2.046875 v 5.296875 c 0 0.390625 0.230469 0.746094 0.585938 0.910156 c 0.359374 0.160156 0.777343 0.101563 1.070312 -0.160156 l 0.386719 -0.335938 c -0.132813 -0.640624 0.046875 -1.335937 0.539062 -1.828124 l 0.417969 -0.417969 v -0.335938 l -0.417969 -0.417969 c -0.023437 -0.023437 -0.042969 -0.046874 -0.0625 -0.070312 l -0.519531 0.453125 v -2.59375 l 0.125 0.109375 c 0.09375 -0.265625 0.246094 -0.515625 0.457031 -0.726562 c 0.300781 -0.300782 0.691407 -0.496094 1.105469 -0.5625 l -1.167969 -1.023438 l 3.136719 -2.75 c 0.21875 -0.1875 0.34375 -0.460938 0.34375 -0.75 s -0.125 -0.5625 -0.34375 -0.75 l -4 -3.5 c -0.191406 -0.171875 -0.445312 -0.2578125 -0.699219 -0.25 z m 1.042969 3.203125 l 1.480469 1.296875 l -1.480469 1.296875 z m 0 0" fill="#2e3434" fill-opacity="0.34902"/>
    <path d="m 11 10 c -0.265625 0 -0.519531 0.105469 -0.707031 0.292969 c -0.390625 0.390625 -0.390625 1.023437 0 1.414062 l 1.292969 1.292969 l -1.292969 1.292969 c -0.390625 0.390625 -0.390625 1.023437 0 1.414062 s 1.023437 0.390625 1.414062 0 l 1.292969 -1.292969 l 1.292969 1.292969 c 0.390625 0.390625 1.023437 0.390625 1.414062 0 s 0.390625 -1.023437 0 -1.414062 l -1.292969 -1.292969 l 1.292969 -1.292969 c 0.390625 -0.390625 0.390625 -1.023437 0 -1.414062 c -0.1875 -0.1875 -0.441406 -0.292969 -0.707031 -0.292969 s -0.519531 0.105469 -0.707031 0.292969 l -1.292969 1.292969 l -1.292969 -1.292969 c -0.1875 -0.1875 -0.441406 -0.292969 -0.707031 -0.292969 z m 0 0" fill="#2e3436"/>
</svg>

<svg width="16" height="16" viewBox="0 0 16 16" fill="none" xmlns="http://www.w3.org/2000/svg">
<g clip-path="url(#clip0_231_955)">
<path d="M7.95695 5.66593e-07C7.82804 0.00781307 7.70304 0.0390631 7.58586 0.0898444C7.23039 0.253907 6.99992 0.609376 6.99992 1V6.29688L4.65617 4.25C4.24211 3.88672 3.6132 3.92578 3.24992 4.34375C2.88664 4.75781 2.9257 5.38672 3.34367 5.75L5.91007 8L3.34367 10.25C2.9257 10.6133 2.88664 11.2422 3.24992 11.6563C3.6132 12.0742 4.24211 12.1133 4.65617 11.75L6.99992 9.70313V15C6.99992 15.3906 7.23039 15.7461 7.58586 15.9102C7.94523 16.0703 8.3632 16.0117 8.65617 15.75L9.04289 15.4141C8.91007 14.7734 9.08976 14.0781 9.58195 13.5859L9.99992 13.168V12.832L9.58195 12.4141C9.55851 12.3906 9.53898 12.3672 9.51945 12.3438L8.99992 12.7969V10.2031L9.12492 10.3125C9.21867 10.0469 9.37101 9.79688 9.58195 9.58594C9.88273 9.28516 10.2734 9.08985 10.6874 9.02344L9.51945 8L12.6562 5.25C12.8749 5.0625 12.9999 4.78906 12.9999 4.5C12.9999 4.21094 12.8749 3.9375 12.6562 3.75L8.65617 0.250001C8.46476 0.0781256 8.21086 -0.00781193 7.95695 5.66593e-07V5.66593e-07ZM8.99992 3.20313L10.4804 4.5L8.99992 5.79688V3.20313Z" fill="#2E3436" fill-opacity="0.5"/>
<path d="M11 10C10.7344 10 10.4805 10.1055 10.293 10.293C9.90234 10.6836 9.90234 11.3164 10.293 11.707L11.5859 13L10.293 14.293C9.90234 14.6836 9.90234 15.3164 10.293 15.707C10.6836 16.0977 11.3164 16.0977 11.707 15.707L13 14.4141L14.293 15.707C14.6836 16.0977 15.3164 16.0977 15.707 15.707C16.0977 15.3164 16.0977 14.6836 15.707 14.293L14.4141 13L15.707 11.707C16.0977 11.3164 16.0977 10.6836 15.707 10.293C15.5195 10.1055 15.2656 10 15 10C14.7344 10 14.4805 10.1055 14.293 10.293L13 11.5859L11.707 10.293C11.5195 10.1055 11.2656 10 11 10V10Z" fill="#2E3436"/>
</g>
<defs>
<clipPath id="clip0_231_955">
<rect width="16" height="16" fill="white"/>
</clipPath>
</defs>
</svg>
